X:111
T:Summer Jig
M:6/8
L:1/8
C:© E. Grieg & P. Gitlitz 2005
R:Jig
B:Anna's Smile
N:I borrowed a bit from Edvard Grieg, so I figured he should get 1st listing in the authorship, since he used it first.
K:G
"Gmaj7"dBA GAB|"Am7"eBA GAB|"Em7/B"ede gfe|"Cmaj7"dBG "D7"A2B|!
"Gmaj7"dBA GAB|"Am7"eBA GAB|"Em7"ede fge|"D9"dBA "Gmaj7"G3:|!
|:"G6"gfg "Am7"age|"G6(/B)"dBG "Am7(/C)"AGE|"G6"gfg "Am7"agf|"Bm7"d2b "D7"a3|!
"G6"gfg "Am7"aga|"Bm7"bge "D7"def|"G6"gaf "Em7"gdB|"D7"cAF "G6"G3:|]
